assets/features/channel/southeast-asia1/PromptPay.svg

<svg width="80" height="80" viewBox="0 0 80 80" fill="none" xmlns="http://www.w3.org/2000/svg">
<g clip-path="url(#clip0_2497_22851)">
<rect width="80" height="80" rx="8" fill="white"/>
<path d="M12.0581 30.1499C15.9545 30.1499 19.8626 30.1499 23.7591 30.1499C25.7599 30.185 27.8427 30.6299 29.4692 31.8708C30.6393 32.7136 31.4349 34.0014 31.8093 35.3945C32.2306 36.9514 32.2423 38.5787 32.0668 40.1708C31.8795 41.6926 31.4115 43.2496 30.335 44.3851C29.1298 45.6377 27.4332 46.2816 25.7482 46.5626C24.2739 46.8318 22.7762 46.7264 21.2902 46.7499C20.0616 46.7499 18.833 46.7499 17.6044 46.7499C17.6044 49.8521 17.6044 52.9544 17.6044 56.0566C15.7556 56.0566 13.8951 56.0566 12.0464 56.0566C12.0464 47.4171 12.0464 38.7894 12.0464 30.1499H12.0581ZM17.6161 34.6921C17.6161 37.2207 17.6161 39.7376 17.6161 42.2662C19.2308 42.2662 20.8455 42.2662 22.472 42.2662C23.5719 42.2896 24.7654 42.0672 25.6078 41.2946C26.3801 40.5922 26.6024 39.5035 26.6258 38.5084C26.6258 37.5836 26.4971 36.5651 25.8652 35.8276C25.1515 35.0081 24.0048 34.7272 22.9634 34.6804C21.1848 34.6804 19.4063 34.6804 17.6277 34.6804L17.6161 34.6921Z" fill="#003D69"/>
<path d="M38.514 33.7676C39.8947 33.2759 41.369 33.112 42.8317 33.1355C44.4581 33.112 46.1079 33.3696 47.6291 33.9432C48.4598 34.2593 49.2906 34.6456 49.8874 35.3129C50.8468 36.3197 51.1276 37.7596 51.1394 39.1058C51.1394 42.2315 51.1394 45.3454 51.1394 48.4711C51.1511 49.3257 51.1042 50.192 51.3032 51.0231C51.4085 51.4914 51.818 51.7841 52.2158 51.9831C52.2158 52.2289 52.2158 52.4865 52.2158 52.7323C50.3437 52.7323 48.4715 52.7323 46.5877 52.7323C46.2834 52.0416 46.1898 51.2807 46.1196 50.5315C45.1718 51.4797 44.0837 52.2992 42.8434 52.8026C41.0882 53.4815 39.0873 53.5284 37.2971 52.9196C35.9398 52.4396 34.7112 51.468 34.1378 50.1217C33.5645 48.7404 33.5411 47.1717 33.9038 45.7318C34.2899 44.2333 35.4132 42.9807 36.8173 42.3369C38.8533 41.3886 41.135 41.295 43.3348 40.9906C44.1071 40.8618 44.9612 40.733 45.558 40.1828C46.1313 39.6443 46.0611 38.7195 45.675 38.0874C45.2772 37.5137 44.54 37.3264 43.8847 37.2328C42.82 37.104 41.6733 37.0572 40.6787 37.5371C39.8245 37.9469 39.4501 38.9068 39.298 39.7848C37.6364 39.7848 35.9632 39.7848 34.3016 39.7848C34.3952 38.4268 34.7463 37.0338 35.5536 35.9099C36.2674 34.8915 37.3439 34.1656 38.514 33.7442V33.7676ZM40.2691 45.0762C39.5671 45.3923 38.982 46.0478 38.9001 46.8322C38.7714 47.6634 38.9469 48.6584 39.6724 49.1618C40.5617 49.8174 41.7669 49.7588 42.7965 49.5013C43.8613 49.1969 44.9729 48.6467 45.4761 47.6048C46.1313 46.3288 45.9324 44.8538 45.9675 43.4607C44.2358 44.5143 42.0828 44.2567 40.2691 45.0645V45.0762Z" fill="#003D69"/>
<path d="M52.7075 33.1587C54.6031 33.1587 56.4869 33.1587 58.3825 33.1587C59.1197 35.5234 59.8568 37.8999 60.594 40.2646C61.2492 37.8999 61.8928 35.5234 62.548 33.1587C64.35 33.1587 66.1519 33.1587 67.9539 33.1587C65.8711 40.7797 63.7766 48.389 61.7173 56.01C59.9153 56.01 58.1134 56.01 56.3114 56.01C56.8614 53.9964 57.3996 51.9712 57.9496 49.9459C56.2061 44.3502 54.451 38.7544 52.7075 33.147V33.1587Z" fill="#003D69"/>
<path d="M109.769 30H-29.9995V70.5126H109.769V30Z" fill="#003D69"/>
<path d="M28.2041 43.3645C25.9831 42.1653 23.3391 41.989 20.889 42.4298C18.7033 42.8354 16.6939 44.1052 15.3895 45.904C13.6092 48.2847 13.0804 51.3885 13.2567 54.2983C13.3977 56.8025 14.2261 59.3596 16.0593 61.1407C17.7162 62.9042 20.184 63.7154 22.5636 63.6978C25.1371 63.7683 27.8868 63.1864 29.8081 61.3523C31.8352 59.3596 32.8399 56.5379 32.9986 53.7339C33.122 51.6354 32.9986 49.4662 32.1349 47.5087C31.3769 45.71 29.8963 44.2639 28.1865 43.3469L28.2041 43.3645ZM27.7634 58.6012C27.076 59.7299 25.8421 60.4529 24.5378 60.6469C22.6164 60.9996 20.4131 60.6998 18.9853 59.2714C17.5928 57.79 17.0464 55.7444 16.9583 53.7692C16.8878 51.4943 17.3461 49.0959 18.6681 47.209C19.4613 46.0803 20.7833 45.4102 22.1405 45.2338C23.8856 45.0046 25.8245 45.2867 27.1818 46.4683C28.3804 47.5088 28.9444 49.0606 29.1736 50.5949C29.5085 53.3107 29.1736 56.1852 27.7634 58.5836V58.6012Z" fill="white"/>
<path d="M11.5467 42.412C10.4362 42.3062 9.27284 42.2885 8.25049 42.7647C6.71696 43.4701 5.51835 44.7575 4.60176 46.133C4.60176 45.022 4.60176 43.911 4.60176 42.8176C3.45602 42.8176 2.31029 42.8176 1.16455 42.8176C1.16455 49.5542 1.16455 56.2732 1.16455 63.0098C2.36317 63.0098 3.57941 63.0098 4.77803 63.0098C4.77803 59.1125 4.77803 55.1975 4.77803 51.3001C4.77803 49.6248 5.60648 47.9671 6.92848 46.9619C8.25049 45.9919 9.97791 45.8156 11.5643 46.0448C11.5467 44.8456 11.5996 43.6288 11.5291 42.4296L11.5467 42.412Z" fill="white"/>
<path d="M64.3563 43.841C62.717 42.3597 60.355 42.201 58.2574 42.4126C56.1951 42.6418 54.3267 43.8058 53.1104 45.4635C52.564 44.5464 51.9118 43.6647 50.96 43.1356C49.3559 42.2539 47.417 42.1833 45.6543 42.5008C43.7506 42.8535 42.2348 44.1761 41.0185 45.6222C41.0185 44.6699 41.0185 43.7176 41.0185 42.7829C39.8375 42.7829 38.6565 42.7829 37.4932 42.7829C37.4932 49.5195 37.4932 56.2385 37.4932 62.9751C38.6918 62.9751 39.8904 62.9751 41.089 62.9751C41.089 59.4305 41.089 55.8858 41.089 52.3235C41.089 51.1067 41.1948 49.8899 41.5826 48.726C42.411 46.1512 45.6015 44.7404 48.1045 45.6398C48.8271 45.9043 49.4617 46.4687 49.6909 47.227C50.0434 48.3027 50.0434 49.449 50.0434 50.56C50.0434 54.7043 50.0434 58.8309 50.0434 62.9751C51.2596 62.9751 52.4759 62.9751 53.6921 62.9751C53.6921 58.9543 53.6921 54.9335 53.6921 50.9127C53.7097 49.6077 53.9565 48.2145 54.8026 47.1741C56.3361 45.3753 59.2093 44.8639 61.254 46.0278C62.2763 46.5921 62.5055 47.8618 62.5407 48.9376C62.5584 53.6109 62.5407 58.2842 62.5407 62.9575C63.7746 62.9575 65.0261 62.9575 66.26 62.9575C66.26 58.2842 66.26 53.6109 66.26 48.9552C66.1895 47.1035 65.7664 45.1108 64.3387 43.8234L64.3563 43.841Z" fill="white"/>
<path d="M90.1438 51.2812C90.0204 48.7593 89.1214 46.167 87.1825 44.474C85.2083 42.6223 82.2999 41.9345 79.6735 42.4636C77.7346 42.7987 76.0424 43.9802 74.8262 45.4792C74.8262 44.6151 74.8262 43.751 74.8262 42.8868C73.6452 42.8868 72.4642 42.8868 71.2832 42.8868C71.2832 50.9285 71.2832 58.9701 71.2832 67.0117C72.4818 67.0117 73.6628 67.0117 74.8614 67.0117C74.8614 64.9307 74.8614 62.8498 74.8614 60.7689C75.5841 61.5448 76.3244 62.3384 77.2763 62.8322C78.8451 63.6787 80.6782 63.7668 82.4057 63.5905C84.9792 63.2554 87.394 61.6859 88.6631 59.3933C90.0204 56.942 90.2848 54.0322 90.1438 51.2812ZM85.7724 57.0302C85.0849 58.7937 83.5338 60.2751 81.6477 60.6101C79.8674 60.9099 77.8403 60.522 76.5536 59.1817C75.2845 57.8238 74.8085 55.9192 74.7557 54.1204C74.7028 51.9513 74.8967 49.6764 75.9895 47.7718C76.6946 46.5197 77.9814 45.6203 79.4091 45.391C81.0484 45.1265 82.864 45.3558 84.1683 46.4491C85.4375 47.5249 86.072 49.1826 86.3188 50.7874C86.6008 52.8683 86.5127 55.0551 85.7724 57.0302Z" fill="white"/>
<path d="M19.5426 61.9135H18.1701C18.1701 63.2637 18.1473 64.6024 18.2502 65.9412C18.0329 64.5567 17.4954 63.2522 17.0836 61.9135C16.7291 61.9135 16.3746 61.9135 16.0314 61.9135C15.6312 63.2522 15.0822 64.5567 14.8763 65.9412C14.8763 65.2432 14.9907 64.5452 14.9678 63.8472C14.9449 63.3095 15.0822 62.6572 14.6247 62.2568C14.0186 61.7418 12.9892 61.7647 12.406 62.314C12.0171 62.6687 11.9828 63.3438 12.3488 63.7214C12.6576 64.0761 13.1379 64.1905 13.584 64.2134C13.584 65.1631 13.584 66.1128 13.584 67.0626C13.5725 67.3829 13.7212 67.7377 14.0529 67.8178C14.4188 67.8979 14.7963 67.8406 15.1737 67.8521C15.6312 66.5591 16.0886 65.2547 16.5575 63.9617C16.9578 65.2547 17.381 66.5362 17.7584 67.8406C18.2045 67.8406 18.6734 67.9207 19.108 67.7834C19.4625 67.6804 19.5311 67.2685 19.5311 66.9481C19.5311 65.2661 19.5311 63.5841 19.5311 61.902L19.5426 61.9135ZM13.481 63.4468C13.2523 63.4468 13.0807 63.2637 13.0807 63.0463C13.0807 62.8289 13.2637 62.6458 13.481 62.6458C13.6983 62.6458 13.8813 62.8289 13.8813 63.0463C13.8813 63.2637 13.6983 63.4468 13.481 63.4468Z" fill="#003D69"/>
<path d="M26.1877 63.1383C26.6452 63.0696 27.034 62.795 27.32 62.4403C26.9769 62.2115 26.6338 61.994 26.2907 61.7881C26.0505 62.0169 25.7302 62.2 25.3986 62.0513C24.5866 61.7423 23.6144 61.6508 22.8596 62.1428C22.1963 62.5318 21.8417 63.2756 21.7388 64.0079C22.791 64.0422 23.9232 63.8935 24.9182 64.3397C25.4443 64.5686 25.2042 65.2208 25.2499 65.6556C24.5866 65.6098 23.8317 66.0103 23.7631 66.7198C23.683 67.475 24.4607 68.0471 25.1698 67.9899C25.8217 68.0356 26.5537 67.6351 26.6223 66.9372C26.6452 66.2163 26.6223 65.4954 26.6223 64.7746C26.6452 64.3626 26.4622 63.9393 26.0848 63.7333C25.2842 63.2527 24.3121 63.2527 23.4086 63.1612C23.5801 62.9895 23.7745 62.8179 24.0376 62.7836C24.7924 62.6577 25.4443 63.3214 26.2106 63.1383H26.1877ZM25.4901 66.7884C25.4901 67.0173 25.3071 67.1889 25.0898 67.1889C24.8725 67.1889 24.6895 67.0058 24.6895 66.7884C24.6895 66.571 24.8725 66.3879 25.0898 66.3879C25.3071 66.3879 25.4901 66.571 25.4901 66.7884Z" fill="#003D69"/>
<path d="M35.0054 63.516C35.0054 62.9096 34.5479 62.4175 34.0447 62.1429C33.2556 61.731 32.3177 61.731 31.4485 61.8569C30.4421 62.0056 29.4699 62.7036 29.2412 63.7449C29.7101 63.7449 30.179 63.7449 30.6594 63.7449C31.0482 62.8066 32.2834 62.532 33.1412 62.9553C33.4729 63.127 33.6787 63.4931 33.6673 63.8593C33.6673 64.6603 33.6673 65.4612 33.6673 66.2507C33.6902 66.5482 33.4728 66.8458 33.1641 66.8458C32.5121 66.903 31.8602 66.8572 31.2198 66.8801C31.2198 66.6169 31.2198 66.3537 31.2198 66.0791C31.8488 66.1363 32.6151 65.7816 32.7295 65.0951C32.8438 64.3284 32.0432 63.7334 31.3342 63.7792C30.7051 63.7334 29.9503 64.0996 29.8817 64.7976C29.8588 65.8159 29.8817 66.8343 29.8817 67.8527C30.8652 67.8527 31.8488 67.8527 32.8324 67.8527C33.3813 67.8527 33.9646 67.9099 34.4679 67.6467C34.8567 67.4522 35.0283 66.9945 35.0283 66.5826C35.0283 65.5528 35.0283 64.5229 35.0283 63.5046L35.0054 63.516ZM30.9682 64.9806C30.9682 64.7518 31.1512 64.5802 31.3685 64.5802C31.5858 64.5802 31.7688 64.7632 31.7688 64.9806C31.7688 65.198 31.5858 65.3811 31.3685 65.3811C31.1512 65.3811 30.9682 65.198 30.9682 64.9806Z" fill="#003D69"/>
<path d="M39.0536 63.4475C38.8249 63.4475 38.6533 63.2644 38.6533 63.047C38.6533 62.8296 38.8363 62.6465 39.0536 62.6465C39.2709 62.6465 39.4539 62.8296 39.4539 63.047C39.4539 63.2644 39.2709 63.4475 39.0536 63.4475Z" fill="#003D69"/>
<path d="M49.8274 66.4338C49.5987 65.8731 48.9582 65.6328 48.3978 65.6557C48.3978 64.4085 48.3978 63.1613 48.3978 61.9141C47.9403 61.9141 47.4829 61.9141 47.0254 61.9141C47.0254 63.4817 47.0254 65.0493 47.0254 66.6169C47.0254 66.9945 47.1169 67.4179 47.4371 67.6581C48.0318 68.1158 48.9353 68.1158 49.5186 67.6467C49.8503 67.3606 50.0219 66.8572 49.8274 66.4338ZM48.5351 67.189C48.3063 67.189 48.1348 67.0059 48.1348 66.7885C48.1348 66.5711 48.3178 66.388 48.5351 66.388C48.7524 66.388 48.9353 66.5711 48.9353 66.7885C48.9353 67.0059 48.7524 67.189 48.5351 67.189Z" fill="#003D69"/>
<path d="M59.2284 61.9143C58.7709 61.9143 58.3134 61.9143 57.856 61.9143C57.856 63.2645 57.8331 64.6032 57.936 65.9534C57.7302 64.5575 57.1812 63.2645 56.7809 61.9257C56.4264 61.9257 56.0718 61.9257 55.7287 61.9257C55.3399 63.2645 54.768 64.5575 54.585 65.9534C54.5736 65.2555 54.6994 64.5575 54.6651 63.8595C54.6651 63.2988 54.768 62.6008 54.2534 62.2232C53.6129 61.7655 52.595 61.7999 52.046 62.3949C51.7144 62.761 51.7029 63.3789 52.046 63.7451C52.3548 64.1112 52.8352 64.2142 53.2927 64.2371C53.2927 65.1868 53.2927 66.148 53.2927 67.0977C53.2812 67.4066 53.4299 67.7613 53.7616 67.8414C54.1275 67.9215 54.5164 67.8643 54.8938 67.8758C55.3513 66.5828 55.7973 65.2783 56.2777 63.9853C56.6665 65.2783 57.0897 66.5599 57.4671 67.8529C57.9131 67.8529 58.3706 67.933 58.8052 67.7957C59.1598 67.6927 59.2398 67.2808 59.2398 66.9604C59.2398 65.2783 59.2398 63.5963 59.2398 61.9028L59.2284 61.9143ZM53.1668 63.4361C52.9381 63.4361 52.7666 63.253 52.7666 63.0356C52.7666 62.8182 52.9495 62.6351 53.1668 62.6351C53.3841 62.6351 53.5671 62.8182 53.5671 63.0356C53.5671 63.253 53.3841 63.4361 53.1668 63.4361Z" fill="#003D69"/>
<path d="M65.6331 61.9142C65.6331 63.3673 65.6331 64.8205 65.6331 66.2737C65.6331 66.5712 65.3815 66.8458 65.0727 66.8229C64.4323 66.8458 63.7918 66.8229 63.1399 66.8229C63.1628 66.411 63.0713 65.9648 63.2314 65.5872C63.5631 65.1981 64.1463 65.427 64.5924 65.3698C64.5924 65.0379 64.5924 64.7061 64.5924 64.3628C64.1006 64.3056 63.4945 64.523 63.0942 64.1454C63.5974 64.1111 64.1578 63.9051 64.3865 63.4131C64.6953 62.841 64.2836 62.0858 63.666 61.9485C63.0713 61.8341 62.3508 61.8455 61.9047 62.3146C61.4701 62.7952 61.6531 63.4932 61.6188 64.0768C61.5731 64.5688 62.0763 64.8777 62.4994 64.9578C62.122 65.0494 61.7904 65.3927 61.7904 65.7931C61.7904 66.4797 61.7904 67.1662 61.7904 67.8528C62.9912 67.8528 64.1921 67.8528 65.393 67.8528C65.8161 67.8528 66.2736 67.7727 66.6053 67.4866C66.9255 67.212 66.9827 66.7657 66.9941 66.3653C66.9941 64.8777 66.9941 63.3902 66.9941 61.9027H65.6217L65.6331 61.9142ZM62.7282 63.0355C62.7282 62.8067 62.9112 62.635 63.1285 62.635C63.3458 62.635 63.5288 62.8181 63.5288 63.0355C63.5288 63.2529 63.3458 63.436 63.1285 63.436C62.9112 63.436 62.7282 63.2529 62.7282 63.0355Z" fill="#003D69"/>
<path d="M68.0006 58.3789C67.6347 58.253 67.2687 58.1271 66.9027 58.0127C66.8226 58.3102 66.6282 58.5963 66.3194 58.6992C65.8276 58.8709 65.2672 58.848 64.8326 59.1684C64.3637 59.4773 64.2036 60.1639 64.4895 60.6444C64.9699 61.4683 66.4452 61.434 66.7883 60.5186C66.9256 60.1753 66.7655 59.832 66.5367 59.5917C67.1772 59.4659 67.9091 59.0997 68.0006 58.3789ZM65.6218 60.5758C65.4388 60.5758 65.2787 60.427 65.2787 60.2325C65.2787 60.038 65.4273 59.8892 65.6218 59.8892C65.8162 59.8892 65.9649 60.038 65.9649 60.2325C65.9649 60.427 65.8162 60.5758 65.6218 60.5758Z" fill="#003D69"/>
<path d="M26.4962 58.5954C26.3246 59.259 25.7985 59.7625 25.2038 60.06C25.3525 59.6939 25.444 59.2247 25.2038 58.87C24.8607 58.3208 24.0716 58.2407 23.5112 58.4581C23.0079 58.6412 22.6877 59.3163 23.0194 59.7739C23.2024 60.0829 23.534 60.2316 23.8657 60.2774C23.6598 60.4948 23.4425 60.6779 23.2024 60.8381C23.5226 60.9754 23.8314 61.2615 24.1974 61.2042C24.9979 61.0898 25.7985 60.861 26.4619 60.3918C27.0909 59.9685 27.5598 59.3277 27.7085 58.5839C27.2968 58.5839 26.885 58.5839 26.4733 58.5839L26.4962 58.5954ZM24.083 59.671C23.8886 59.671 23.7399 59.5108 23.7399 59.3277C23.7399 59.1446 23.9 58.9844 24.083 58.9844C24.266 58.9844 24.4261 59.1446 24.4261 59.3277C24.4261 59.5108 24.266 59.671 24.083 59.671Z" fill="#003D69"/>
<path d="M42.3938 61.9141C42.3938 63.31 42.3938 64.7175 42.3938 66.1249C41.8677 65.6672 41.2044 65.3811 40.541 65.2095C40.5181 64.4085 40.5753 63.6075 40.5181 62.818C40.1636 61.5365 37.8877 61.628 37.6818 62.9668C37.6132 63.7677 38.4824 64.2598 39.1915 64.1911C39.1915 64.5115 39.1915 64.8433 39.1915 65.1637C38.4023 65.2324 37.4874 65.8503 37.6246 66.7428C37.7847 67.9099 39.4545 68.2303 40.2551 67.5208C40.6096 67.2005 40.541 66.697 40.541 66.2736C41.273 66.5826 41.902 67.1432 42.2451 67.8756C42.6683 67.8641 43.1372 67.9557 43.5032 67.6925C43.7548 67.4865 43.7662 67.1432 43.7777 66.8572C43.7777 65.2095 43.7777 63.5732 43.7777 61.9255C43.3202 61.9255 42.8627 61.9255 42.4052 61.9255L42.3938 61.9141ZM39.1114 66.903C39.0313 66.9487 38.8484 67.0059 38.7111 66.8686C38.7111 66.8572 38.6882 66.8457 38.6882 66.8343C38.4595 66.4796 38.8255 66.1363 39.18 66.0677C39.18 66.102 39.18 66.1363 39.18 66.1706V66.6283C39.18 66.6283 39.18 66.8686 39.1114 66.9144V66.903Z" fill="#003D69"/>
</g>
<rect x="0.5" y="0.5" width="79" height="79" rx="7.5" stroke="#8D8D8D"/>
<defs>
<clipPath id="clip0_2497_22851">
<rect width="80" height="80" rx="8" fill="white"/>
</clipPath>
</defs>
</svg>

<svg xmlns="http://www.w3.org/2000/svg" width="80" height="80" fill="none" viewBox="0 0 80 80"><g clip-path="url(#a)"><rect width="80" height="80" fill="#fff" rx="8"/><path fill="#003d69" d="M12.058 30.15H23.76c2 .035 4.084.48 5.71 1.72 1.17.844 1.966 2.131 2.34 3.524.422 1.557.433 3.185.258 4.777-.187 1.522-.655 3.079-1.732 4.214-1.205 1.253-2.902 1.897-4.587 2.178-1.474.269-2.972.163-4.458.187h-3.686v9.307h-5.558V30.15zm5.558 4.542v7.574h4.856c1.1.024 2.293-.199 3.136-.971.772-.703.994-1.791 1.018-2.787 0-.924-.129-1.943-.76-2.68-.715-.82-1.861-1.1-2.903-1.148h-5.335zm20.898-.924c1.38-.492 2.855-.656 4.318-.633 1.626-.023 3.276.235 4.797.808.83.316 1.662.703 2.258 1.37.96 1.007 1.24 2.447 1.252 3.793v9.365c.012.855-.035 1.721.164 2.552.105.468.515.761.913.96v.75h-5.628c-.305-.691-.398-1.452-.468-2.201-.948.948-2.036 1.767-3.277 2.27a8.2 8.2 0 0 1-5.546.118c-1.357-.48-2.586-1.452-3.16-2.798-.572-1.382-.596-2.95-.233-4.39.386-1.499 1.51-2.751 2.913-3.395 2.036-.948 4.318-1.042 6.518-1.346.772-.13 1.626-.258 2.223-.808.573-.539.503-1.464.117-2.096-.398-.573-1.135-.76-1.79-.854-1.065-.129-2.212-.176-3.206.304-.855.41-1.229 1.37-1.381 2.248h-4.996c.093-1.358.444-2.751 1.252-3.875.713-1.018 1.79-1.744 2.96-2.166zm1.755 11.308c-.702.316-1.287.972-1.369 1.756-.129.831.047 1.826.772 2.33.89.655 2.095.597 3.125.34 1.064-.305 2.176-.855 2.68-1.897.654-1.276.455-2.751.49-4.144-1.731 1.053-3.884.796-5.698 1.604zm12.439-11.917h5.675c.737 2.364 1.474 4.74 2.211 7.106.655-2.365 1.299-4.742 1.954-7.106h5.406c-2.083 7.62-4.177 15.23-6.237 22.851h-5.406c.55-2.014 1.089-4.039 1.639-6.064-1.744-5.596-3.499-11.192-5.242-16.799z"/><path fill="#003d69" d="M109.769 30H-30v40.513h139.77z"/><path fill="#fff" d="M28.204 43.365c-2.22-1.2-4.865-1.376-7.315-.935a8.87 8.87 0 0 0-5.5 3.474c-1.78 2.38-2.309 5.484-2.132 8.394.14 2.505.97 5.062 2.802 6.843 1.657 1.763 4.125 2.574 6.505 2.557 2.573.07 5.323-.512 7.244-2.346 2.027-1.992 3.032-4.814 3.19-7.618.124-2.099 0-4.268-.863-6.225-.758-1.799-2.239-3.245-3.948-4.162zm-.44 15.236c-.688 1.129-1.922 1.852-3.226 2.046-1.922.353-4.125.053-5.553-1.376-1.392-1.481-1.939-3.527-2.027-5.502-.07-2.275.388-4.673 1.71-6.56.793-1.129 2.115-1.799 3.473-1.975 1.745-.23 3.684.053 5.04 1.234 1.2 1.04 1.763 2.593 1.993 4.127.335 2.716 0 5.59-1.41 7.989zM11.547 42.412c-1.11-.106-2.274-.123-3.297.353-1.533.705-2.732 1.992-3.648 3.368v-3.315H1.165V63.01h3.613V51.3a5.55 5.55 0 0 1 2.15-4.338c1.322-.97 3.05-1.146 4.636-.917-.017-1.2.036-2.416-.035-3.615zm52.809 1.429c-1.639-1.481-4.001-1.64-6.099-1.428-2.062.229-3.93 1.393-5.147 3.05-.546-.917-1.198-1.798-2.15-2.327-1.604-.882-3.543-.953-5.306-.635-1.903.352-3.42 1.675-4.635 3.121v-2.84h-3.526v20.193h3.596V52.324c0-1.217.106-2.434.494-3.598.828-2.575 4.019-3.986 6.522-3.086.722.264 1.357.829 1.586 1.587.352 1.076.352 2.222.352 3.333v12.415h3.65V50.913c.017-1.305.264-2.698 1.11-3.739 1.533-1.799 4.406-2.31 6.451-1.146 1.022.564 1.252 1.834 1.287 2.91.017 4.673 0 9.346 0 14.02h3.719V48.955c-.07-1.852-.494-3.844-1.921-5.132zm25.788 7.44c-.124-2.522-1.023-5.114-2.962-6.807-1.974-1.852-4.882-2.54-7.508-2.01-1.94.335-3.632 1.516-4.848 3.015v-2.592h-3.543v24.125h3.578v-6.243c.723.776 1.463 1.57 2.415 2.063 1.57.847 3.402.935 5.13.758 2.573-.335 4.988-1.904 6.257-4.197 1.357-2.451 1.622-5.36 1.48-8.112m-4.372 5.75c-.687 1.763-2.238 3.244-4.124 3.58-1.78.299-3.808-.089-5.094-1.43-1.27-1.357-1.746-3.262-1.798-5.06-.053-2.17.14-4.445 1.234-6.35a4.86 4.86 0 0 1 3.42-2.38c1.638-.264 3.454-.035 4.758 1.058 1.27 1.076 1.904 2.734 2.15 4.338.283 2.081.195 4.268-.546 6.243"/><path fill="#003d69" d="M19.543 61.914H18.17c0 1.35-.023 2.688.08 4.027-.217-1.384-.755-2.689-1.166-4.028H16.03c-.4 1.34-.949 2.644-1.155 4.028 0-.698.115-1.396.092-2.094-.023-.538.114-1.19-.343-1.59-.606-.515-1.636-.492-2.219.057-.389.355-.423 1.03-.057 1.407.309.355.789.47 1.235.492v2.85c-.011.32.137.675.469.755.366.08.743.023 1.12.034.458-1.293.916-2.597 1.385-3.89.4 1.293.823 2.574 1.2 3.879.447 0 .915.08 1.35-.058.354-.103.423-.514.423-.835v-5.046zm-6.062 1.533a.4.4 0 0 1-.4-.4c0-.218.183-.401.4-.401s.4.183.4.4-.183.4-.4.4m12.707-.308c.457-.068.846-.343 1.132-.698a26 26 0 0 0-1.03-.652c-.24.229-.56.412-.891.263-.812-.309-1.785-.4-2.54.092-.663.389-1.017 1.133-1.12 1.865 1.052.034 2.184-.114 3.18.332.525.229.285.88.33 1.316-.662-.046-1.417.354-1.486 1.064-.08.755.698 1.327 1.407 1.27.652.046 1.384-.355 1.452-1.053.023-.72 0-1.442 0-2.162.023-.412-.16-.836-.537-1.042-.8-.48-1.773-.48-2.676-.572.171-.172.366-.343.629-.377.754-.126 1.406.537 2.173.354zm-.698 3.65c0 .23-.183.4-.4.4a.405.405 0 0 1-.4-.4c0-.217.182-.4.4-.4.217 0 .4.183.4.4m9.515-3.272c0-.606-.457-1.099-.96-1.373-.79-.412-1.727-.412-2.597-.286-1.006.149-1.978.847-2.207 1.888h1.418c.39-.938 1.624-1.213 2.482-.79a1 1 0 0 1 .526.904v2.392c.023.297-.194.595-.503.595-.652.057-1.304.011-1.944.034v-.8c.629.056 1.395-.298 1.51-.985.114-.767-.687-1.362-1.396-1.316-.629-.046-1.384.32-1.452 1.019-.023 1.018 0 2.036 0 3.055h2.95c.55 0 1.133.057 1.636-.206.389-.195.56-.653.56-1.064v-3.078zm-4.037 1.465c0-.23.183-.4.4-.4s.4.182.4.4c0 .217-.182.4-.4.4a.405.405 0 0 1-.4-.4m8.086-1.533a.4.4 0 0 1-.4-.401c0-.217.182-.4.4-.4.217 0 .4.183.4.4s-.183.4-.4.4m10.773 2.987c-.228-.56-.869-.801-1.43-.778v-3.742h-1.372v4.703c0 .377.092.8.412 1.041.595.458 1.498.458 2.082-.011.331-.286.503-.79.308-1.213m-1.292.755a.4.4 0 0 1-.4-.4c0-.218.183-.401.4-.401s.4.183.4.4-.183.401-.4.401m10.693-5.275h-1.372c0 1.35-.023 2.69.08 4.04-.206-1.396-.755-2.69-1.155-4.028h-1.052c-.39 1.338-.961 2.632-1.144 4.027-.011-.698.114-1.395.08-2.094 0-.56.103-1.258-.412-1.636-.64-.457-1.658-.423-2.207.172-.332.366-.343.984 0 1.35.309.366.79.47 1.247.492v2.86c-.012.31.137.664.469.744.365.08.754.023 1.132.035.457-1.293.903-2.598 1.384-3.89.389 1.292.812 2.574 1.19 3.867.445 0 .903.08 1.337-.057.355-.103.435-.515.435-.836v-5.057zm-6.061 1.522a.4.4 0 0 1-.4-.4c0-.218.182-.4.4-.4.217 0 .4.182.4.4 0 .217-.183.4-.4.4m12.466-1.522v4.36c0 .297-.251.572-.56.549-.64.023-1.281 0-1.933 0 .023-.412-.069-.858.091-1.236.332-.389.915-.16 1.361-.217v-1.007c-.491-.057-1.097.16-1.498-.218.503-.034 1.064-.24 1.292-.732.31-.572-.102-1.327-.72-1.464-.595-.115-1.315-.103-1.761.366-.435.48-.252 1.178-.286 1.762-.046.492.457.8.88.88-.377.092-.709.436-.709.836v2.06h3.603c.423 0 .88-.08 1.212-.366.32-.275.378-.721.39-1.122v-4.462h-1.373zm-2.905 1.121c0-.228.183-.4.4-.4s.4.183.4.4-.182.401-.4.401a.405.405 0 0 1-.4-.4M68 58.379a41 41 0 0 0-1.097-.366c-.08.297-.275.583-.584.686-.491.172-1.052.149-1.486.47-.47.308-.63.995-.343 1.475.48.824 1.955.79 2.298-.125.138-.344-.022-.687-.251-.927.64-.126 1.372-.492 1.464-1.213m-2.378 2.197a.344.344 0 0 1-.343-.343c0-.195.148-.344.343-.344.194 0 .343.149.343.343a.337.337 0 0 1-.343.344m-39.127-1.981c-.171.664-.697 1.168-1.292 1.465.148-.366.24-.835 0-1.19-.343-.55-1.132-.63-1.693-.412-.503.183-.823.858-.492 1.316.183.309.515.458.847.503-.206.218-.424.4-.664.561.32.137.63.423.995.366.8-.114 1.602-.343 2.265-.812.629-.424 1.098-1.064 1.247-1.808h-1.236zm-2.413 1.076a.344.344 0 0 1-.343-.343c0-.183.16-.344.343-.344s.343.16.343.344-.16.343-.343.343"/><path fill="#003d69" d="M42.394 61.914v4.21c-.526-.457-1.19-.743-1.853-.914-.023-.801.034-1.602-.023-2.392-.354-1.282-2.63-1.19-2.836.149-.069.8.8 1.293 1.51 1.224v.973c-.79.068-1.705.686-1.567 1.579.16 1.167 1.83 1.487 2.63.778.355-.32.286-.824.286-1.247.732.309 1.361.87 1.704 1.602.423-.012.892.08 1.258-.184.252-.205.263-.549.275-.835v-4.931h-1.373zm-3.283 4.989c-.08.046-.263.103-.4-.034 0-.012-.023-.023-.023-.035-.229-.354.137-.698.492-.766v.56s0 .24-.069.286z"/></g><rect width="79" height="79" x=".5" y=".5" stroke="#8d8d8d" rx="7.5"/><defs><clipPath id="a"><rect width="80" height="80" fill="#fff" rx="8"/></clipPath></defs></svg>
